X:1
T:The Lord Hath Risen
T:The Lord Hath Risen
T:Daniel Brink Towner
T:Katherine Sumner Burr, 1891
T:Public Domain Courtesy of the Cyber Hymnal™
C:Daniel Brink Towner
Z:Public Domain
Z:Courtesy of the Cyber Hymnal™
%%score ( 1 2 ) ( 3 4 )
L:1/8
Q:1/4=103
M:4/4
K:C
V:1 treble 
V:2 treble 
V:3 bass 
V:4 bass 
V:1
 [EG] | [Ec]2 [Ec]2 [Ec]3 [Fd] | (cB)A[FB] [Ec]2 [EG][Ec] | [Fd]2 [Fd]2 (dcB)[=FA] | G6 z [FG] | %5
w: 1.~The|Lord hath ris- en,|sing * hal- le- lu- jah! Hath|ris’n to die * * no|more; Our|
w: 2.~The|Lord hath ris- en,|sing * hal- le- lu- jah! Our|cap- tain from * * the|skies; His|
w: 3.~The|Lord hath ris- en,|sing * hal- le- lu- jah! A|shin- ing path * * we|tread, In|
w: 4.~The|Lord hath ris- en,|sing * hal- le- lu- jah! To|Christ the conquer- * * or|sing! He|
 [Ec]2 [Fc]2 [Ec]3 [Fd] | (cBA)[FB] [Ec]2 [EG][EG] | (AB) ([Gc][Gd]) [Ge]2 [Fd]2 | [Ec]6 z || %9
w: king hath won the|hard * * fought bat- tle, And|o- * pened * death’s dark|door.|
w: loy- al hosts still|beck- * * on up- ward, And|we * with * Him shall|rise.|
w: tri- umph thro’ death’s|dark * * do- min- ions, With|Christ * our * liv- ing|head.|
w: lives, all power to|Him * * is giv- en— All|glo- * ry * to our|king.|
"^Refrain" c3 G [FA] [EG]2 z | f3 e [Ge] [Gd]2 z | [^Fd]3 [Fc] [GB][FA][GB][Ac] | %12
w: |||
w: Hal- le- lu- jah!|Hal- le- lu- jah!|Christ the Lord hath ris- en|
w: |||
w: |||
 [GB]2 [^FA]2 G3 [=FG] | [Ec]2 [Fc]2 [Ec]3 [Fd] | (cBA)[FB] [Ec]2 [EG][EG] | %15
w: |||
w: from the dead, Let|all the earth sing|hal- * * le- lu- jah! For|
w: |||
w: |||
 (AB[Gc])[Gd] [Ge]2 !fermata![Gd][Gc] |"^Adagio" [Fc][FB][FA][FB] [Ec]3 |] %17
w: ||
w: Christ * * hath ris- en! Hath|ris- en from the dead.|
w: ||
w: ||
V:2
 x | x8 | F3 x5 | x4 ^F3 x | G6 x2 | x8 | F3 x5 | F2 x6 | x7 || x3 (E/E/) x4 | x3 (G/G/) x4 | x8 | %12
 x4 G3 x | x8 | F3 x5 | F2 x6 | x7 |] %17
V:3
 [C,G,] | [C,G,]2 [C,G,]2 [C,G,]3 [C,C] | [G,D]3 [G,D] [C,C]2 [C,C][C,C] | %3
w: ~|~ ~ ~ ~|~ ~ ~ ~ ~|
 [G,B,]2 [G,B,]2 (A,2 D)[D,C] | [G,,B,]6 z [G,B,] | [C,C]2 [C,A,]2 [C,G,]3 [C,C] | %6
w: ~ ~ ~ * ~|~ ~|~ ~ ~ ~|
 [G,D]3 [G,D] [C,C]2 [C,C][C,C] | ([F,C][D,D]) ([E,C][G,B,]) C2 [G,B,]2 | [C,C]6 z || %9
w: ~ ~ ~ ~ ~|~ * ~ * ~ ~|~|
 z3 [C,C]/[C,C]/ [F,C] [C,C]2 z | z3 [C,C]/[C,C]/ [G,C] [G,B,]2 z | %11
w: Hal- le- lu- jah!|Hal- le- lu- jah!|
 [D,A,]3 [D,A,] [D,D][D,D][D,D][D,D] | [D,D]2 [D,C]2 [G,B,]3 [G,B,] | %13
w: ||
 [C,C]2 [C,A,]2 [C,G,]3 [C,C] | [G,D]3 [G,D] [C,C]2 [C,C][C,C] | %15
w: ||
 ([F,C][D,D][E,C])[G,B,] C2 [G,F][G,E] | [G,D][G,D][G,D][G,D] [C,C]3 |] %17
w: ||
V:4
 x | x8 | x8 | x4 D,3 x | x8 | x8 | x8 | x4 C2 x2 | x7 || x8 | x8 | x8 | x8 | x8 | x8 | x4 C2 x2 | %16
 x7 |] %17

